!!!!SEGMENT: pl-kozmzk--mzk-m-31--001-012_szymanowska-maria--vingt-exercices-et-preludes-pour-le-pianoforte-preludium-es-dur.krn
!!!cenid: 18xx:448
!!!COM: Szymanowska, Maria
!!!COM-rismID: pe140138
!!!CDT: 1789/12/14-1831/07/25
!!!CNT: Polish
!!!GTL: Vingt Exercices et Préludes pour le Pianoforte
!!!OTL: Preludium Es-dur
!!!OMV: 012
!!!PDT: 1819
!!!AGN: Secular; Prelude
!!!YEC: Copyright 2022 Narodowy Instytut Fryderyka Chopina (https://polishscores.org)
!!!YEM: License CC-BY-4.0 (https://creativecommons.org/licenses/by/4.0)
!!!SMS-siglum: PL-KOZmzk
!!!SMS-shelfmark: mzk/m/31
!!!SMS-shelfwork: 001-012 G
!!!SMS-variant:
!!!SMS-altvar:
!!!NIFC-rismSourceID: 1001025323
!!!NIFC-rismChildID: 1001025335
!!!NIFC-islandoraID: pl-kozmzk:6325
!!!URL-pdf-islandora: https://repozytorium.nifc.pl/islandora/object/pl-kozmzk%3A6325/datastream/PDF/view
!!!URL-scan: https://polish.musicsources.pl/pl/lokalizacje/galeria/rekopisy/462 @EN{Scan on Polish Music Sources Website} @PL{Skany w portalu Dziedzictwo Muzyki Polskiej w otwartym dostępie}
!!!IIIF:
!!!ONB-nifc:
!!!AIN: 2 empty
!!!key:
!!!OMD:
!!!OMD-mod: Vivace
**kern	**kern	**dynam
*part2	*part1	*
*staff2	*staff1	*
*Iempty	*Iempty	*
*I"	*I"	*
*mI"[Pianoforte]	*mI"[Pianoforte]	*
*I'[pf]	*I'[pf]	*
*clefF4	*clefG2	*
*k[b-e-a-]	*k[b-e-a-]	*
*E-:	*E-:	*
*M4/4	*M4/4	*
*met(c)	*met(c)	*
=1	=1	=1
!	!LO:TX:a:t=Vivace:mod=	!
1D 1DD;	2r	.
.	2ff 2b- 2a-;^<\	.
=2	=2	=2
!LO:TX:a:t=P:problem=mixed beam	!	!
8EE-/L	8gg`\L	.
8G 8E-\	8b- 8g\	.
8EE-/	8ff`\	.
8GJ 8E-\	8b-J 8g\	.
*rep	*	*
!LO:TX:a:t=P:problem=mixed beam	!	!
8EE-/L	8ee-`\L	.
8G 8E-\	8b- 8g\	.
8EE-/	8dd`\	.
8GJ 8E-\	8b-J 8g\	.
*Xrep	*	*
=3	=3	=3
!LO:TX:a:t=P:problem=mixed beam	!	!
8AA-/L	8cc`</L	.
8c 8A-\	8a- 8e-/	.
8AA-/	8dd`</	.
8cJ 8A-\	8a-J 8e-/	.
*rep	*	*
!LO:TX:a:t=P:problem=mixed beam	!	!
8AA-/L	8ee-`</L	.
8c 8A-\	8a- 8e-/	.
8AA-/	8cc`</	.
8cJ 8A-\	8a-J 8e-/	.
*Xrep	*	*
=4	=4	=4
!LO:TX:a:t=P:problem=mixed beam	!	!
8BB-\L	8b-/L	.
8d 8B-\	8a- 8f/	.
8BB-\	8cc-X^</	.
8dJ 8B-\	8a-J 8f/	.
*rep	*	*
!LO:TX:a:t=P:problem=mixed beam	!	!
8BB-\L	8b-/L	.
8d 8B-\	8a- 8f/	.
8BB-\	8dd/	.
8dJ 8B-\	8a-J 8f/	.
*Xrep	*	*
=5	=5	=5
!LO:TX:a:t=P:problem=mixed beam	!	!
8EE-/L	8ee-\L	.
8G 8E-\	8b- 8g\	.
8EE-/	8gg\	.
8GJ 8E-\	8b-J 8g\	.
!LO:TX:a:t=P:problem=mixed beam	!	!
8EE-/L	8ff\L	.
8F 8D\	8b- 8a-\	.
8EE-/	8bb-\	.
8FJ 8D\	8b-J 8a-\	.
=6	=6	=6
!LO:TX:a:t=P:problem=mixed beam	!	!
8EE-/L	8gg\L	.
8G 8E-\	8b- 8g\	.
8EE-/	8ff\	.
8GJ 8E-\	8b-J 8g\	.
*rep	*	*
!LO:TX:a:t=P:problem=mixed beam	!	!
8EE-/L	8ee-\L	.
8G 8E-\	8b- 8g\	.
8EE-/	8dd\	.
8GJ 8E-\	8b-J 8g\	.
!!LO:LB:g=original
*Xrep	*	*
=7	=7	=7
!LO:TX:a:t=P:problem=mixed beam	!	!
8AA-/L	8cc/L	.
8c 8A-\	8a- 8e-/	.
8AA-/	8ee-^>/	.
8cJ 8A-\	8a-J 8e-/	.
*rep	*	*
!LO:TX:a:t=P:problem=mixed beam	!	!
8AA-/L	8dd/L	.
8c 8A-\	8a- 8e-/	.
8AA-/	8cc/	.
8cJ 8A-\	8a-J 8e-/	.
*Xrep	*	*
=8	=8	=8
!LO:TX:a:t=P:problem=mixed beam	!	!
8BB-/L	8b-/L	.
8d 8B-\	8a- 8f/	.
8BB-/	8cc-X^>/	.
8dJ 8B-\	8a-J 8f/	.
*rep	*	*
!LO:TX:a:t=P:problem=mixed beam	!	!
8BB-/L	8b-/L	.
8d 8B-\	8a- 8f/	.
8BB-/	8dd/	.
8dJ 8B-\	8a-J 8f/	.
*Xrep	*	*
=9	=9	=9
!LO:TX:a:t=P:problem=mixed beam	!	!
8EE-/L	8ee-\L	.
8G 8E-\	8b- 8g\	.
8EE-/	8gg\	.
8GJ 8E-\	8b-J 8g\	.
!LO:TX:a:t=P:problem=mixed beam	!	!
8EE-/L	8ff\L	.
8F 8D\	8b- 8a-\	.
8EE-/	8bb-\	.
8FJ 8D\	8b-J 8a-\	.
=10	=10	=10
!LO:TX:a:t=P:problem=mixed beam	!	!
8EE-/L	8gg\L	.
8G 8E-\	8b- 8g\	.
8EE-/	8ee-\	.
8GJ 8E-\	8b-J 8g\	.
!LO:TX:a:t=P:problem=mixed beam	!	!
8EE-/L	8ff\L	.
8F 8D\	8b- 8a-\	.
8EE-/	8bb-\	.
8FJ 8D\	8b-J 8a-\	.
=11	=11	=11
!LO:TX:a:t=P:problem=mixed beam	!	!
!	!LO:SIC:s=8gg^\L:v	!
8EE-/L	8gg\L	.
8G 8E-\	8b- 8g\	.
8EE-/	8gg\	.
8GJ 8E-\	8b-J 8g\	.
!LO:TX:a:t=P:problem=mixed beam	!	!
8GG/L	8gg^\L	.
8Bn 8G\	8bn 8f\	.
8GG/	8ff\	.
8BJ 8G\	8bJ 8f\	.
=12	=12	=12
!LO:TX:a:t=P:problem=mixed beam	!	!
8C\L	8ff^\L	.
8c 8E-\	8cc 8g\	.
8C\	8ee-\	.
8cJ 8E-\	8ccJ 8g\	.
!LO:TX:a:t=P:problem=mixed beam	!	!
8FF/L	8ee-^\L	.
8F 8D-X/	8a- 8f\	.
8FF/	8dd-X\	.
8A-J 8D-/	8a-J 8f\	.
!!LO:LB:g=original
=13	=13	=13
!LO:TX:a:t=P:problem=mixed beam	!	!
8GG/L	8dd-X^>/L	.
8G 8E-\	8g 8e-/	.
8GG/	8cc/	.
8GJ 8E-\	8gJ 8e-/	.
!LO:TX:a:t=P:problem=mixed beam	!	!
8GG/L	8cc^>/L	.
8Bn 8F\	8f 8d/	.
8GG/	8bn/	.
8BJ 8F\	8fJ 8d/	.
=14	=14	=14
!LO:TX:a:t=P:problem=mixed beam	!	!
8AA-\L	8ddn^>/L	.
8c 8E-\	8a- 8e-/	.
8AA-\	8cc/	.
8cJ 8E-\	8a-J 8e-/	.
!LO:TX:a:t=P:problem=mixed beam	!	!
8AAn\L	8dd^>/L	.
8c 8F#X\	8f#X 8e-/	.
8AA\	8cc/	.
8cJ 8F#\	8f#J 8e-/	.
=15	=15	=15
!LO:TX:a:t=P:problem=mixed beam	!	!
8BB-/L	8b-/L	<
8B-J 8G\	8gJ 8e-/	.
!LO:TX:a:t=P:problem=mixed beam	!	!
8BB-/L	8gg\L	.
8e-J 8G\	8b-J 8g\	.
!LO:TX:a:t=P:problem=mixed beam	!	!
8BB-/L	8gg\L	[
8e-J 8G\	8b- 8g\	.
!LO:TX:a:t=P:problem=mixed beam	!	!
8BB-/L	8ff\	.
8dJ 8A-\	8b-J 8a-\	.
=16	=16	=16
!LO:TX:a:t=P:problem=mixed beam	!	!
8BB-/L	8ee-\L	<
8e- 8G\	8b- 8g\	.
8BB-/	8bb-\	.
8e-J 8G\	8b-J 8g\	.
!LO:TX:a:t=P:problem=mixed beam	!	!
8BB-/L	8bb-\L	[
8e- 8G\	8b- 8g\	.
8BB-/	8aa-\	.
8dJ 8F\	8b-J 8a-\	.
=17	=17	=17
!LO:TX:a:t=P:problem=mixed beam	!	!
8BB-/L	8gg\L	.
8e- 8G\	8b- 8g\	.
8BB-/	8gg\	.
8e-J 8G\	8b-J 8g\	.
!LO:TX:a:t=P:problem=mixed beam	!	!
8BB-/L	8gg\L	.
8e- 8G\	8b- 8g\	.
8BB-/	8ff\	.
8dJ 8A-\	8b-J 8a-\	.
=18	=18	=18
8BB-\L	8ee-\L	.
8e- 8G\	8b- 8g\	.
8BB-\	8gg\	.
8e-J 8G\	8b-J 8g\	.
!LO:TX:a:t=P:problem=mixed beam	!	!
8AAn/L	8gg\L	.
8c 8F\	8an 8e-\	.
8AA/	8ff\	.
8cJ 8F\	8aJ 8e-\	.
!!LO:LB:g=original
=19	=19	=19
8BB-\L	8gg^\L	.
8d 8F\	8b- 8f\	.
8BB-\	8ff\	.
8dJ 8F\	8b-J 8f\	.
!LO:TX:a:t=P:problem=mixed beam	!	!
8EE-/L	8ff^\L	.
8G 8E-\	8cc 8g\	.
8EE-/	8ee-\	.
8GJ 8E-\	8ccJ 8g\	.
=20	=20	=20
!LO:TX:a:t=P:problem=mixed beam	!	!
8FF/L	8ee-^>/L	.
8B- 8D\	8b- 8f/	.
8FF/	8dd/	.
8B-J 8D\	8b-J 8f/	.
!LO:TX:a:t=P:problem=mixed beam	!	!
8FF/L	8dd^>/L	.
8An 8E-\	8an 8e-/	.
8FF/	8cc/	.
8AJ 8E-\	8aJ 8e-/	.
=21	=21	=21
8DD/L	8gg^\L	.
8F 8BB-/	8b- 8f\	.
8DD/	8ff\	.
8FJ 8BB-/	8b-J 8f\	.
!	!LO:SIC:s=8aan^\L:v	!
8EE-/L	8aan\L	<
8G 8E-/	8ee- 8g\	.
8EE-/	8gg\	.
8GJ 8E-/	8ee-J 8g\	.
=22	=22	=22
!LO:TX:a:t=P:problem=mixed beam	!	!
8FF/L	8bb-^\L	.
8An 8E-\	8ee- 8cc\	.
8FF/	8aan\	.
8AJ 8E-\	8ee-J 8cc\	.
!	!LO:SIC:s=8ccc^\L:v	!
8GG\L	8ccc\L	.
8B- 8D\	8gg 8dd\	.
8GG\	8bb-\	.
8B-J 8D\	8ggJ 8dd\	.
=23	=23	=23
!LO:TX:a:t=P:problem=mixed beam	!	!
8AAn/L	8ddd\L	.
8c 8F\	8ff 8ee-\	.
8AA/	8ccc\	.
8cJ 8F\	8ffJ 8ee-\	.
8BB-\L	8eee-\L	.
8d 8F\	8ff 8dd\	.
8BB-\	8ddd\	.
8dJ 8F\	8ffJ 8dd\	.
=24	=24	=24
*	*8va	*
!	!LO:MO:mod=!null:null	!
!	!LO:TX:a:t=8va	!
8C\L	8bbb-\L	.
8f 8An\	8eee- 8ccc\	.
8C\	8aaan\	.
8fJ 8A\	8eee-J 8ccc\	.
8D\L	8cccc\L	.
8f 8B-\	8fff 8ddd\	.
8D\	8bbb-\	.
8fJ 8B-\	8fffJ 8ddd\	.
!!LO:LB:g=original
=25	=25	=25
8E-\L	8aaan\L	.
8g 8B-\	8eee- 8bb-\	.
8E-\	8ggg\	.
8gJ 8B-\	8eee-J 8bb-\	.
8En\L	8aaan\L	.
8g 8d-X\	8ddd-X 8bb-\	.
8E\	8ggg\	.
8gJ 8d-\	8ddd-J 8bb-\	.
*	*X8va	*
=26	=26	=26
!	!LO:MO:mod=!null:null	!
!	!LO:TX:a:i:t=loco	!
8F\L	8fff\L	.
8fn 8d 8B-\	8dddn 8bb- 8ff\	.
8F\	8fff\	.
8fJ 8d 8B-\	8dddJ 8bb- 8ff\	.
8F\L	8fff\L	.
8f 8c 8B-\	8ccc 8bb- 8ff\	.
8F\	8fff\	.
8fJ 8c 8An\	8cccJ 8aan 8ff\	.
=27	=27	=27
4d 4B-\	4ddd 4bb-\	.
8G-X\L	8ggg-X\L	f
8g-X 8d-X 8B-\	8ddd-X 8bb- 8gg-X\	.
8G-\	8ggg-\	.
8g-J 8d- 8B-\	8ddd-J 8bb- 8gg-\	.
8G-X\L	8eeen\L	.
8enJ 8d-X 8B-\	8ddd-XJ 8bb- 8gg-\	.
=28	=28	=28
8F\L	8fff\L	>
8f 8d-X 8B-\	8ddd-X 8bb- 8ff\	.
8F\	8fff\	.
8fJ 8d- 8B-\	8ddd-J 8bb- 8ff\	.
8F\L	8fff\L	.
8f 8c 8An\	8ccc 8aan 8ff\	]
8F\	8fff\	.
8fJ 8c 8A\	8cccJ 8aa 8ff\	.
=29	=29	=29
4d-X 4B-\	4ddd-X 4bb-\	.
8G-X\L	8ggg-X\L	ff
8g-XJ 8d- 8B-X\	8ddd-XJ 8bb- 8gg-X\	.
8G-\L	8eeen\L	.
8en 8c 8B-\	8ccc 8bb- 8gg-X\	.
8G-\	8eee\	.
8eJ 8c 8B-\	8cccJ 8bb- 8gg-\	.
=30	=30	=30
8F\L	8fff\L	>
8f 8dn 8B-\	8dddn 8bb- 8ff\	.
8F\	8fff\	.
!LO:SIC:s=8B-\J 8d- 8f:v	!	!
8fJ 8d 8B-\	8ddd-XJ 8bb- 8ff\	.
8F\L	8fff\L	.
8f 8c 8B-\	8ccc 8bb- 8ff\	.
8F\	8fff\	.
8fJ 8c 8An\	8cccJ 8aan 8ff\	]]
!!LO:LB:g=original
=31	=31	=31
!LO:TX:a:t=P:problem=mixed beam	!	!
8BB-/L	8ddd`\L	.
8d 8B-\	8ff 8dd\	.
8BB-/	8ccc`\	.
8dJ 8B-\	8ffJ 8dd\	.
*rep	*	*
!LO:TX:a:t=P:problem=mixed beam	!	!
8BB-/L	8bb-`\L	.
8d 8B-\	8ff 8dd\	.
8BB-/	8aan`\	.
8dJ 8B-\	8ffJ 8dd\	.
*Xrep	*	*
=32	=32	=32
!LO:TX:a:t=P:problem=mixed beam	!	!
8EE-/L	8gg\L	.
8G 8E-\	8ee- 8b-\	.
8EE-/	8aan\	.
8GJ 8E-\	8ee-J 8b-\	.
*rep	*	*
!LO:TX:a:t=P:problem=mixed beam	!	!
8EE-/L	8bb-\L	.
8G 8E-\	8ee- 8b-\	.
8EE-/	8gg\	.
8GJ 8E-\	8ee-J 8b-\	.
*Xrep	*	*
=33	=33	=33
!LO:TX:a:t=P:problem=mixed beam	!	!
8FF/L	8ff\L	.
8An 8C\	8ee- 8cc\	.
8FF/	8gg-X^\	.
8AJ 8C\	8ee-J 8cc\	.
*rep	*	*
!LO:TX:a:t=P:problem=mixed beam	!	!
8FF/L	8ff\L	.
8A 8C\	8ee- 8cc\	.
8FF/	8aan\	.
8AJ 8C\	8ee-J 8cc\	.
*Xrep	*	*
=34	=34	=34
8BB-\L	8bb-\L	.
8d 8F\	8ff 8dd\	.
8BB-\	8ddd\	.
8dJ 8F\	8ffJ 8dd\	.
8BB-\L	8ccc\L	.
8e- 8F\	8ff 8ee-\	.
8BB-\	8fff\	.
8e-J 8F\	8ffJ 8ee-\	.
=35	=35	=35
8BB-\L	8ddd\L	.
8d 8B-\	8ff 8dd\	.
8BB-\	8ccc\	.
8dJ 8B-\	8ffJ 8dd\	.
*rep	*	*
8BB-\L	8bb-\L	.
8d 8B-\	8ff 8dd\	.
8BB-\	8aan\	.
8dJ 8B-\	8ffJ 8dd\	.
*Xrep	*	*
=36	=36	=36
!LO:TX:a:t=P:problem=mixed beam	!	!
8EE-/L	8gg\L	.
8G 8E-\	8ee- 8b-\	.
8EE-/	8bb-\	.
8GJ 8E-\	8ee-J 8b-\	.
*rep	*	*
!LO:TX:a:t=P:problem=mixed beam	!	!
8EE-/L	8aan\L	.
8G 8E-\	8ee- 8b-\	.
8EE-/	8gg\	.
8GJ 8E-\	8ee-J 8b-\	.
*Xrep	*	*
!!LO:LB:g=original
=37	=37	=37
8FF\L	8ff\L	.
8An 8C\	8ee- 8cc\	.
8FF\	8gg-X^\	.
8AJ 8C\	8ee-J 8cc\	.
*rep	*	*
8FF\L	8ff\L	.
8A 8C\	8ee- 8cc\	.
8FF\	8aan\	.
8AJ 8C\	8ee-J 8cc\	.
*Xrep	*	*
=38	=38	=38
8BB-\L	8bb-\L	.
8d 8F\	8ff 8dd\	.
8BB-\	8ddd\	.
8dJ 8F\	8ffJ 8dd\	.
8BB-\L	8ccc\L	.
8e- 8F\	8ff 8ee-\	.
8BB-\	8fff\	.
8e-J 8F\	8ffJ 8ee-\	.
=39	=39	=39
8BB-\L	8ddd\L	.
8d 8F\	8ff 8dd\	.
8BB-\	8bb-\	.
8dJ 8F\	8ffJ 8dd\	.
8BB-\L	8ccc\L	.
8e- 8F\	8ff 8ee-\	.
8BB-\	8fff\	.
8e-J 8F\	8ffJ 8ee-\	.
=40	=40	=40
8BB-\L	8ddd\L	.
8d 8F\	8ff 8dd\	.
8BB-\	8ddd\	.
8dJ 8F\	8ffJ 8dd\	.
8BB-\L	8ddd^\L	.
8f#X 8A-\	8ff#X 8dd\	.
8D\	8ccc\	.
8f#J 8A-\	8ff#J 8dd\	.
=41	=41	=41
8G\L	8ccc\L	.
8g 8d\	8gg 8dd\	.
8G\	8bb-\	.
8gJ 8d\	8ggJ 8dd\	.
8En\L	8ddd^\L	.
8g 8c\	8gg 8cc\	.
8E\	8ccc\	.
8gJ 8c\	8ggJ 8cc\	.
=42	=42	=42
8F\L	8bb-\L	.
8f 8c\	8ff 8cc\	.
8F\	8aan\	.
8fJ 8c\	8ffJ 8cc\	.
8D\L	8ccc^\L	.
8f 8B-\	8ff 8b-\	.
8D\	8bb-\	.
8fJ 8B-\	8ffJ 8b-\	.
!!LO:PB:g=original
=43	=43	=43
8En\L	8aan\L	.
8en 8B-X\	8een 8b-\	.
8E\	8gg\	.
8eJ 8B-\	8eeJ 8b-\	.
8C#X\L	8bb-^\L	.
8en 8An\	8ee 8a-\	.
8C#\	8aa\	.
8eJ 8A\	8eeJ 8a-\	.
=44	=44	=44
8D\L	8gg\L	.
!LO:SIC:s=8A\ 8d:v	!	!
8d 8A-\	8dd 8an\	.
8D\	8ff\	.
!LO:SIC:s=8A\J 8d:v	!	!
8dJ 8A-\	8ddJ 8a\	.
8BBn\L	8aan^\L	.
8d 8G\	8dd 8g\	.
8BB\	8gg\	.
8dJ 8G\	8ddJ 8g\	.
=45	=45	=45
8C\L	8een\L	ff
8en 8G\	8cc 8g\	.
8C\	8gg\	.
8eJ 8G\	8ccJ 8g\	.
8C\L	8aan\L	.
8f 8G\	8bn 8g\	.
8C\	8gg\	.
8fJ 8G\	8bJ 8g\	.
=46	=46	=46
8C\L	8ccc\L	.
8en 8G\	8cc 8g\	.
8C\	8gg\	.
8eJ 8G\	8ccJ 8g\	.
8C\L	8aan\L	.
8f 8G\	8bn 8g\	.
8C\	8gg\	.
8fJ 8G\	8bJ 8g\	.
=47	=47	=47
8C\L	8ee-X\L	pp
8e-X 8G\	8cc 8g\	.
8C\	8gg\	.
8e-J 8G\	8ccJ 8g\	.
8C\L	8aa-X\L	.
8f 8G\	8bn 8g\	.
8C\	8gg\	.
8fJ 8G\	8bJ 8g\	.
=48	=48	=48
8C\L	8ccc\L	.
8e-X 8G\	8cc 8g\	.
8C\	8gg\	.
8e-J 8G\	8ccJ 8g\	.
8C\L	8aa-X^\L	.
8f 8G\	8bn 8g\	.
8C\	8gg\	.
8fJ 8G\	8bJ 8g\	.
!!LO:LB:g=original
=49	=49	=49
8C\L	8gg\L	.
8e- 8G\	8cc 8g\	.
8C\	8gg\	.
8e-J 8G\	8ccJ 8g\	.
8AAn\L	8gg\L	.
8c 8F\	8ee- 8cc 8f\	.
8AA\	8ff\	.
8cJ 8F\	8ee-J 8cc 8f\	.
=50	=50	=50
8BB-\L	8bb-\L	.
8d 8F\	8dd 8b- 8f\	.
8BB-\	8ff\	.
8dJ 8F\	8ddJ 8b- 8f\	.
8AAn\L	8gg\L	.
8c 8F\	8ee- 8cc 8f\	.
8AA\	8ff\	.
8cJ 8F\	8ee-J 8cc 8f\	.
=51	=51	=51
8BB-\L	8ff\L	.
8B- 8F\	8dd 8b- 8f\	.
8BB-\	8ff\	.
8B-J 8F\	8ddJ 8b- 8f\	.
8AAn\L	8gg^\L	<
8c 8F\	8ee- 8cc 8f\	.
8AA\	8ff\	.
8cJ 8F\	8ee-J 8cc 8f\	.
=52	=52	=52
8BB-\L	8gg^\L	.
8B- 8D\	8dd 8b- 8f\	.
8BB-\	8ff\	.
8B-J 8D\	8ddJ 8b- 8f\	.
8AA--\L	8gg\L	[ rf
8B- 8F 8D\	8dd 8b- 8f\	.
8AA--\	8ff\	.
8B-J 8F 8D\	8ddJ 8b- 8f\	.
=53	=53	=53
8GG\L	8ccc^\L	.
8B- 8E-\	8gg 8ee-\	.
8GG\	8bb-\	.
8B-J 8E-\	8ggJ 8ee-\	.
8AA-\L	8bb-^\L	.
8c 8A-\	8ff 8cc\	.
8AA-\	8aa-\	.
8cJ 8A-\	8ffJ 8cc\	.
=54	=54	=54
8BB-\L	8aa-^\L	.
8e- 8B-\	8ee- 8b-\	.
8BB-\	8gg\	.
8e-J 8B-\	8ee-J 8b-\	.
8BB-\L	8gg^\L	.
8d 8B- 8A-\	8dd 8a-\	.
8BB-\	8ff\	.
8dJ 8B- 8A-\	8ddJ 8a-\	.
!!LO:LB:g=original
=55	=55	=55
8GG\L	8ccc^\L	.
8B- 8E-\	8ee- 8b-\	.
8GG\	8bb-\	.
8B-J 8E-\	8ee-J 8b-\	.
8AA-\L	8ddd^\L	.
8c 8A-\	8ff 8cc\	.
8AA-\	8ccc\	.
8cJ 8A-\	8ffJ 8cc\	.
=56	=56	=56
*	*8va	*
!	!LO:MO:mod=!null:null	!
!	!LO:TX:a:t=8va	!
8BB-\L	8eee-\L	.
8d 8A-\	8aa- 8ff\	.
8BB-\	8ddd\	.
8dJ 8A-\	8aa-J 8ff\	.
8C\L	8fff\L	.
8e- 8G\	8ccc 8gg\	.
8C\	8eee-\	.
8e-J 8G\	8cccJ 8gg\	.
=57	=57	=57
8D\L	8ggg\L	.
8f 8B-\	8bb- 8aa-\	.
8D\	8fff\	.
8fJ 8B-\	8bb-J 8aa-\	.
8E-\L	8aaa-\L	.
8g 8B-\	8bb- 8gg\	.
8E-\	8ggg\	.
8gJ 8B-\	8bb-J 8gg\	.
*	*X8va	*
=58	=58	=58
*clefG2	*	*
!	!LO:MO:mod=!null:null	!
!	!LO:TX:a:i:t=loco	!
8F/L	8eee-\L	.
8b- 8d/	8aa- 8ff\	.
8F/	8ddd\	.
8b-J 8d/	8aa-J 8ff\	.
8G/L	8fff\L	.
8b- 8e-/	8bb- 8gg\	.
8G/	8eee-\	.
8b-J 8e-/	8bb-J 8gg\	.
=59	=59	=59
8A-/L	8ddd\L	.
8cc 8e-/	8aa- 8ee-\	.
8A-/	8ccc\	.
8ccJ 8e-/	8aa-J 8ee-\	.
8An/L	8ddd\L	.
8cc 8f#X/	8ff#X 8ee-\	.
8A/	8ccc\	.
8ccJ 8f#/	8ff#J 8ee-\	.
=60	=60	=60
8B-/L	8bb-\L	.
8b-J 8g 8e-/	8gg 8ee- 8b-\	.
*clefF4	*	*
8BB-\L	8bb-\	.
8B-J 8G 8E-\	8ggJ 8ee- 8b-\	.
8D\L	8bb-\L	.
8B- 8F 8E-\	8ff 8ee- 8b-\	.
8D\	8bb-\	.
8B-J 8F 8D\	8ffJ 8dd 8b-\	.
!!LO:LB:g=original
=61	=61	=61
4G 4E-\	4gg 4ee-\	.
8C-X\L	8ccc-X\L	f
8c-XJ 8G-X 8E-\	8gg-XJ 8ee- 8cc-X\	.
8C-\L	8ccc-\L	.
8c-J 8G- 8E-\	8gg-J 8ee- 8cc-\	.
8C-\L	8aan\L	.
8AnJ 8G- 8E-\	8gg-J 8ee- 8cc-\	.
=62	=62	=62
8BB-\L	8bb-\L	.
!	!	!LO:MO:mod=!null:null
!	!	!LO:HP:t=dim
8B- 8G-X 8E-\	8gg-X 8ee- 8b-\	>
8BB-\	8bb-\	.
8B-J 8G- 8E-\	8gg-J 8ee- 8b-\	.
8BB-\L	8bb-\L	.
8B- 8F 8D\	8ff 8dd 8b-\	.
8BB-\	8bb-\	.
8B-J 8F 8D\	8ffJ 8dd 8b-\	.
=63	=63	=63
4G-X 4E-\	4gg-X 4ee-\	.
8C-X\L	8ccc-X\L	ff
8c-XJ 8G- 8E-\	8gg-XJ 8ee- 8cc-X\	.
8C-\L	8ccc-\L	.
8c-J 8G- 8E-\	8gg-J 8ee- 8cc-\	.
8Cn\L	8aan\L	.
8cn\J	8gg-J 8ee- 8an\	.
*kcancel	*	*
=64	=64	=64
*k[f#c#g#d#]	*k[f#c#g#d#]	*
!	!LO:MO:mod=!LO&colon;TX&colon;b&colon;i&colon;t=rallen.	!
!	!LO:TX:b:i:t=rallen&colon;	!
8C#\L	8gg#\L	.
8c#\	8ee 8cc# 8g#\	.
8GG#\	8gg#\	.
8G#\J	8eeJ 8cc# 8g#\	.
8AA\L	8ff#\L	.
8A\	8ee 8cc# 8f#\	.
8BB\	8bb\	.
8B\J	8ff#J 8dd# 8b\	.
=65	=65	=65
!	!LO:MO:mod=!LO&colon;TX&colon;a&colon;i&colon;t=a tempo	!
!	!LO:TX:b:t=a tempo	!
!	!	!LO:DY:b:rj
8E\L	8gg#\L	p
8e 8B\	8b 8g#\	.
8E\	8ff#\	.
8eJ 8B\	8bJ 8g#\	.
8E\L	8ee\L	.
8e 8B\	8b 8g#\	.
8E\	8dd#\	.
8eJ 8B\	8bJ 8g#\	.
!!LO:LB:g=original
=66	=66	=66
8AA\L	8cc#`/L	.
8A 8E\	8a 8e/	.
8AA\	8dd#/	.
8AJ 8E\	8aJ 8e`/	.
8AA\L	8ee/L	.
8A 8E\	8a 8e/	.
8AA\	8cc#/	.
8AJ 8E\	8aJ 8e/	.
=67	=67	=67
8BB\L	8b/L	.
8B 8F#\	8a 8f#/	.
8BB\	8ccn^/	.
8BJ 8F#\	8aJ 8f#/	.
8BB\L	8b/L	.
8B 8F#\	8a 8f#/	.
8BB\	8dd#/	.
8BJ 8F#\	8aJ 8f#/	.
=68	=68	=68
8E\L	8ee\L	<
8e 8B\	8b 8g#\	.
8E\	8ee\	.
8eJ 8B\	8bJ 8g#\	.
*kcancel	*	*
=-	=-	=-
*k[b-e-a-]	*k[b-e-a-]	*
8D`\L	8ff\L	.
8d 8B\	8b 8a-\	.
8D\	8ff#X^\	.
8dJ 8B\	8bJ 8a-\	[[
=69	=69	=69
!	!LO:MO:mod=!LO&colon;TX&colon;b&colon;i&colon;t=espress.	!
!	!LO:TX:b:i:t=espres	!
8E-\L	8gg\L	.
8e- 8B-\	8b- 8g\	.
8E-\	8ff\	.
8e-J 8B-\	8b-J 8g\	.
8E-\L	8ee-\L	.
8e- 8B-\	8b- 8g\	.
8E-\	8dd\	.
8e-J 8B-\	8b-J 8g\	.
=70	=70	=70
8AA-\L	8cc/L	.
8c 8A-\	8a- 8e-/	.
8AA-\	8ee-^>/	.
8cJ 8A-\	8a-J 8e-/	.
8AA-\L	8dd/L	.
8c 8A-\	8a- 8e-/	.
8AA-\	8cc/	.
8cJ 8A-\	8a-J 8e-/	.
!!LO:LB:g=original
=71	=71	=71
8BB-\L	8b-/L	.
8d 8B-\	8a- 8f/	.
8BB-\	8cc-X/	.
8dJ 8B-\	8a-J 8f/	.
8BB-\L	8b-/L	.
8d 8B-\	8a- 8f/	.
8BB-\	8dd/	.
8dJ 8B-\	8a-J 8f/	.
=72	=72	=72
8EE-\L	8ee-\L	.
8G 8E-\	8b- 8g\	.
8EE-\	8gg\	.
8GJ 8E-\	8b-J 8g\	.
8EE-\L	8ff\L	.
8F 8D\	8b- 8a-\	.
8EE-\	8bb-\J	.
8FJ 8D\	8r	.
=73	=73	=73
*	*8va	*
!	!LO:MO:mod=!null:null	!
!	!LO:TX:a:t=8va	!
8GL 8E-\	8bb-L 8gg`\	.
8EE-\	8ggg\	.
8G 8E-\	8bb- 8gg`\	.
8EE-\J	8fff\J	.
8GL 8E-\	8bb-L 8gg\	.
8EE-\	8eee-\	.
8G 8E-\	8bb- 8gg\	.
8EE-\J	8ddd\J	.
=74	=74	=74
8cL 8A-\	8aa-L 8ee-/	.
8AA-\	8ccc/	.
8c 8A-\	8aa- 8ee-/	.
8AA-\J	8ddd/J	.
8cL 8A-\	8aa-L 8ee-/	.
8AA-\	8eee-/	.
8c 8A-\	8aa- 8ee-/	.
8AA-\J	8ccc/J	.
=75	=75	=75
8dL 8B-\	8aa-L 8ff/	.
8BB-\	8bb-/	.
8d 8B-\	8aa- 8ff/	.
8BB-\J	8ccc-X/J	.
8dL 8B-\	8aa-L 8ff/	.
8BB-\	8cccn/	.
8d 8B-\	8aa- 8ff/	.
8BB-\J	8ddd/J	.
=76	=76	=76
8GL 8E-\	8bb-L 8gg\	.
8EE-\	8eee-\	.
8G 8E-\	8bb- 8gg\	.
8EE-\J	8ggg\J	.
8FL 8D\	8bb-L 8aa-\	.
8EE-\	8fff\	.
8F 8D\	8bb- 8aa-\	.
8EE-\J	8bbb-\J	.
!!LO:LB:g=original
=77	=77	=77
8GL 8E-\	8bb-L 8gg\	.
8EE-\	8ggg\	.
!	!LO:MO:mod=!LO&colon;TX&colon;b&colon;i&colon;t=perdendosi	!
!	!LO:TX:b:i:t=per  -                      den            -              -       do                    -si.	!
8G 8E-\	8bb- 8gg\	.
8EE-\J	8eee-\J	.
8FL 8D\	8bb-L 8aa-\	.
8EE-\	8fff\	.
8F 8D\	8bb- 8aa-\	.
8EE-\J	8bbb-\J	.
=78	=78	=78
8GL 8E-\	8bb-L 8gg\	.
8EE-\	8bbb-\	.
8F 8D\	8bb- 8aa-\	.
8EE-\J	8bbb-\J	.
8GL 8E-\	8bb-L 8gg\	.
8EE-\	8bbb-\	.
8F 8D\	8bb- 8aa-\	.
8EE-\J	8bbb-\J	.
=79	=79	=79
8GL 8E-\	8bb-L 8gg\	.
8EE-\	8bbb-\	.
8F 8D\	8bb- 8aa-\	.
8EE-\J	8bbb-\J	.
8GL 8E-\	8bb-L 8gg\	.
8EE-\	8bbb-\	.
8F 8D\	8bb- 8aa-\	.
8EE-\J	8bbb-\J	.
=80	=80	=80
4G 4E-\	4bb- 4gg/	.
4r	4r	.
*	*X8va	*
!	!LO:MO:mod=!null:null	!
!	!LO:TX:a:i:t=loco	!
4e- 4B- 4G 4E-\	4gg 4ee- 4b- 4g\	f
4r	4r	.
=81	=81	=81
2.E- 2.EE-;</	2.e- 2.B- 2.G;/	.
!LO:MO:mod=!null:null	!	!
!LO:TX:b:t=3 0 4 3	!	!
4ryy	4ryy	.
==	==	==
*-	*-	*-
!!!system-decoration: {(s1,s2)}
!!!RDF**kern: >=above
!!!RDF**kern: <= below
!!!filter-modern: sic -sq | shed -e "s/LO:DY:(a|b|rj)/LO:dy:$1/L" | shed -e "s/TX(.*):t=P:/tx$1:t=P:/LG" | modori -m | autostem -r | shed -e "s/yy//" | shed -e "s/^(X?)rep$/$1REP/I"
!!!ENC: Anna Matuszewska
!!!END: 2020-07-20
!!!EED: Anna Matuszewska
!!!EEV: 2020-07-20
!!!EED-modern: Antoni Szymański
!!!END-modern: 2022-09-11
